X:1
T:Title
%%score { ( 1 3 ) | ( 2 4 ) }
L:1/8
Q:1/4=100
M:4/4
K:Db
V:1 treble nm="Grand Piano"
V:3 treble 
V:2 bass 
V:4 bass 
V:1
 [DF][EG][_F=G][=FA] [Fd]2 [_GB]2 | z4 [FA]4 | AE=DE [DF]2 [EG]2 | [DF]8 | %4
w: A.~H.~Ackley * * * * *||||
 [DF][EG][_F=G][=FA] [Fd]2 [_GB]2 | [FA]2 [DF]2 [FA]4 | =GGGA B2 c2 | [CA]6 z2 | FEDE F2 [DFA]2 | %9
w: |||||
 [DGB]2 [DGd]2 [DFA]4 | FEDE F2 [FA]2 | z2 [Gd]2 c4 | [Fd][Fe][Fd][FA] [Ac][GB] [GB]2 | %13
w: ||||
 [=GB][Gc][Gd][Ge] dc c2 |[M:9/8] [Fd][Gc][Ad] A B2 e3 |[M:4/4] .d2 .[Ec]G .[Fd]2 z2 |] %16
w: |||
V:2
 [D,A,][D,A,][D,D][D,D] [D,A,]2 [D,B,]2 | [D,D]2 [D,A,]2 D4 | %2
 [A,CE][A,C][A,_C][A,=C] [A,,A,]2 [A,,A,]2 | [D,A,]8 | [D,A,][D,A,][D,D][D,D] [D,A,]2 [D,B,]2 | %5
 [D,D]2 [D,A,]2 [D,D]4 | [E,B,E][E,B,E][E,DE][E,CE] [E,=G,D]2 [E,G,E]2 | [A,,A,]6 z2 | %8
 [D,A,D][D,G,D][D,F,][D,G,D] [D,A,D]2 D,2 | G,2 B,,2 D,4 | %10
 [D,A,D][D,G,D][D,F,][D,G,D] [D,A,D]2 [D,D]2 | z4[K:treble] A2 z2 | %12
 [D,D][D,A,][D,D][G,D] [G,D][G,D] [G,D]2 | [E,D][E,C][E,B,][E,B,][K:treble] [A,G][A,EG] [A,EG]2 | %14
[M:9/8][K:bass] [D,D][E,A,][F,D] [F,D][K:treble] [G,DG]2 [G,B,G]3 | %15
[M:4/4] .[A,F]2[K:bass] [A,,A,]2 [D,A,]4 |] %16
V:3
 x8 | [FA]2 [DF]2 z2 F,2 | x8 | x8 | x8 | x8 | x8 | x8 | x8 | x8 | x8 | [EG]2 z E z2 G2 | x8 | x8 | %14
[M:9/8] x9 |[M:4/4] x8 |] %16
V:4
 x8 | z4 D,2 z2 | x8 | x8 | x8 | x8 | x8 | x8 | x8 | x8 | x8 | [E,B,]2 .[E,B,]2[K:treble] [A,E]4 | %12
 x8 | x4[K:treble] x4 |[M:9/8][K:bass] x4[K:treble] x5 |[M:4/4] x2[K:bass] x6 |] %16

